src/assets/other/w.svg

<svg width="1332" height="570" viewBox="0 0 1332 570" fill="none" xmlns="http://www.w3.org/2000/svg">
<path d="M647.831 565.151C631.714 565.147 615.994 560.148 602.834 550.843C589.674 541.537 579.722 528.383 574.346 513.188L449.871 161.544C442.974 142.054 444.101 120.623 453.005 101.964C461.909 83.3059 477.86 68.9487 497.35 62.0513C516.839 55.1538 538.271 56.281 556.929 65.185C575.588 74.089 589.945 90.0403 596.842 109.53L721.317 461.2C725.471 472.959 726.745 485.543 725.032 497.897C723.318 510.25 718.668 522.012 711.47 532.197C704.272 542.381 694.736 550.691 683.663 556.43C672.59 562.168 660.303 565.168 647.831 565.176V565.151Z" fill="url(#paint0_linear_2164_2648)"/>
<path d="M571.039 461.453L663.947 100.84C668.128 85.4754 677.996 72.2759 691.551 63.9188C705.105 55.5617 721.331 52.6726 736.937 55.8375C752.542 59.0024 766.36 67.9842 775.588 80.9615C784.816 93.9388 788.763 109.94 786.628 125.72L731.795 494.044C728.588 515.597 716.95 534.992 699.443 547.963C681.935 560.935 659.992 566.42 638.439 563.213C616.887 560.005 597.492 548.368 584.521 530.86C571.549 513.352 566.064 491.409 569.271 469.857C569.71 467.026 570.3 464.22 571.039 461.453Z" fill="url(#paint1_linear_2164_2648)"/>
<path d="M1268.57 228.75L674.967 561.408C660.28 569.661 643.024 572.08 626.635 568.181C610.245 564.282 595.926 554.353 586.529 540.371C577.132 526.388 573.347 509.38 575.928 492.732C578.509 476.084 587.267 461.02 600.456 450.539L1132.71 26.6133C1145.27 16.6164 1159.66 9.18986 1175.09 4.75758C1190.51 0.325306 1206.65 -1.02588 1222.6 0.781186C1238.54 2.58825 1253.98 7.51816 1268.02 15.2894C1282.06 23.0607 1294.43 33.5212 1304.42 46.0736C1314.42 58.626 1321.85 73.0246 1326.28 88.4471C1330.71 103.87 1332.06 120.014 1330.26 135.959C1328.45 151.904 1323.52 167.336 1315.75 181.376C1307.98 195.415 1297.52 207.787 1284.96 217.783C1279.78 221.846 1274.3 225.512 1268.57 228.75Z" fill="url(#paint2_linear_2164_2648)"/>
<path d="M763.696 67.1758L1100.33 407.751C1117.82 425.45 1127.57 449.374 1127.42 474.26C1127.28 499.146 1117.26 522.955 1099.56 540.451C1081.86 557.946 1057.93 567.693 1033.05 567.549C1008.16 567.405 984.353 557.381 966.858 539.682C963.49 536.211 960.365 532.513 957.505 528.613L677.322 140.251C668.922 128.665 665.211 114.332 666.933 100.125C668.655 85.9184 675.683 72.8873 686.609 63.644C697.534 54.4006 711.549 49.6281 725.845 50.2831C740.141 50.9381 753.662 56.9721 763.696 67.1758Z" fill="url(#paint3_linear_2164_2648)"/>
<path d="M578.292 181.09C585.519 173.405 591.124 164.343 594.774 154.445C598.424 144.547 600.044 134.016 599.536 123.478C599.029 112.941 596.406 102.614 591.822 93.1124C587.238 83.6107 580.789 75.1292 572.857 68.1735C564.926 61.2178 555.675 55.9302 545.656 52.626C535.638 49.3218 525.056 48.0686 514.543 48.9411C504.03 49.8136 493.8 52.794 484.463 57.7046C475.126 62.6151 466.874 69.3554 460.197 77.5234L143.938 435.163C136.711 442.849 131.106 451.91 127.456 461.808C123.806 471.706 122.186 482.238 122.693 492.775C123.201 503.312 125.824 513.639 130.408 523.141C134.991 532.643 141.441 541.124 149.373 548.08C157.304 555.036 166.555 560.323 176.573 563.627C186.592 566.932 197.173 568.185 207.687 567.312C218.2 566.44 228.43 563.459 237.767 558.549C247.104 553.638 255.356 546.898 262.032 538.73L578.292 181.09Z" fill="url(#paint4_linear_2164_2648)"/>
<path d="M123.439 512.876C126.328 522.774 131.138 532.006 137.594 540.044C144.051 548.083 152.027 554.771 161.069 559.728C170.11 564.684 180.039 567.81 190.288 568.929C200.538 570.048 210.908 569.137 220.805 566.248C230.703 563.36 239.935 558.55 247.973 552.093C256.012 545.637 262.7 537.66 267.656 528.619C272.612 519.578 275.739 509.649 276.858 499.399C277.977 489.15 277.066 478.78 274.177 468.883L184.139 110.166C181.568 97.5762 176.416 85.6554 169.008 75.1557C161.6 64.656 152.097 55.8052 141.098 49.1615C130.099 42.5178 117.842 38.2254 105.101 36.5549C92.3604 34.8844 79.4115 35.8721 67.0714 39.4557C54.7312 43.0393 43.2675 49.1411 33.4032 57.3761C23.5388 65.6112 15.4879 75.801 9.75819 87.3028C4.02844 98.8046 0.744151 111.369 0.112459 124.203C-0.519234 137.038 1.51537 149.864 6.08796 161.873L123.439 512.876Z" fill="url(#paint5_linear_2164_2648)"/>
<path d="M191.62 256.602C236.578 256.602 273.023 220.156 273.023 175.199C273.023 130.241 236.578 93.7959 191.62 93.7959C146.663 93.7959 110.217 130.241 110.217 175.199C110.217 220.156 146.663 256.602 191.62 256.602Z" fill="url(#paint6_linear_2164_2648)"/>
<defs>
<linearGradient id="paint0_linear_2164_2648" x1="725.801" y1="311.359" x2="445.387" y2="311.359" gradientUnits="userSpaceOnUse">
<stop offset="0.14" stop-color="#BF9B79"/>
<stop offset="0.33" stop-color="#B29381"/>
<stop offset="1" stop-color="#C8996E"/>
</linearGradient>
<linearGradient id="paint1_linear_2164_2648" x1="788.447" y1="493.378" x2="567.068" y2="109.911" gradientUnits="userSpaceOnUse">
<stop stop-color="#BE9A79"/>
<stop offset="0.73" stop-color="#DB5B4F"/>
</linearGradient>
<linearGradient id="paint2_linear_2164_2648" x1="1022.1" y1="424.66" x2="877.257" y2="173.764" gradientUnits="userSpaceOnUse">
<stop offset="0.1" stop-color="#8F4B98"/>
<stop offset="1" stop-color="#E43A80"/>
</linearGradient>
<linearGradient id="paint3_linear_2164_2648" x1="626.948" y1="308.925" x2="1122.46" y2="308.925" gradientUnits="userSpaceOnUse">
<stop stop-color="#4CA5DB"/>
<stop offset="1" stop-color="#6256A5"/>
</linearGradient>
<linearGradient id="paint4_linear_2164_2648" x1="7.90756" y1="702.51" x2="515.824" y2="135.379" gradientUnits="userSpaceOnUse">
<stop offset="0.14" stop-color="#4788C8"/>
<stop offset="0.55" stop-color="#9293A0"/>
<stop offset="0.95" stop-color="#B6997F"/>
</linearGradient>
<linearGradient id="paint5_linear_2164_2648" x1="78.2924" y1="81.3922" x2="342.487" y2="930.909" gradientUnits="userSpaceOnUse">
<stop stop-color="#4788C8"/>
<stop offset="0.57" stop-color="#9293A0"/>
<stop offset="0.98" stop-color="#B6997F"/>
</linearGradient>
<linearGradient id="paint6_linear_2164_2648" x1="269.385" y1="134.818" x2="18.6678" y2="265.057" gradientUnits="userSpaceOnUse">
<stop stop-color="#FBA92F"/>
<stop offset="1" stop-color="#EB7338"/>
</linearGradient>
</defs>
</svg>

<svg width="1332" height="570" viewBox="0 0 1332 570" fill="none" xmlns="http://www.w3.org/2000/svg">
  <path shape-rendering='crispEdges' fill="url(#a)" d="M647.831 565.151a77.974 77.974 0 0 1-73.485-51.963L449.871 161.544a77.955 77.955 0 0 1 47.479-99.493 77.95 77.95 0 0 1 99.492 47.479L721.317 461.2a78.006 78.006 0 0 1-9.847 70.997 77.988 77.988 0 0 1-63.639 32.979v-.025Z"/>
  <path shape-rendering='crispEdges' fill="url(#b)" d="m571.039 461.453 92.908-360.613a62.721 62.721 0 0 1 72.99-45.003 62.726 62.726 0 0 1 49.691 69.883l-54.833 368.324a82.154 82.154 0 0 1-93.356 69.169 82.155 82.155 0 0 1-69.168-93.356 80.202 80.202 0 0 1 1.768-8.404Z"/>
  <path shape-rendering='crispEdges' fill="url(#c)" d="M1268.57 228.75 674.967 561.408a67.004 67.004 0 0 1-74.511-110.869L1132.71 26.613A122.224 122.224 0 0 1 1222.6.781a122.241 122.241 0 0 1 45.42 14.508 122.074 122.074 0 0 1 36.4 30.785 122.112 122.112 0 0 1 21.86 42.373 122.375 122.375 0 0 1 3.98 47.512 122.276 122.276 0 0 1-14.51 45.417 122.077 122.077 0 0 1-30.79 36.407 130.93 130.93 0 0 1-16.39 10.967Z"/>
  <path shape-rendering='crispEdges' fill="url(#d)" d="M763.696 67.176 1100.33 407.75a93.823 93.823 0 0 1 27.09 66.509 93.808 93.808 0 0 1-27.86 66.191 93.85 93.85 0 0 1-66.51 27.098 93.83 93.83 0 0 1-66.192-27.867 105.403 105.403 0 0 1-9.353-11.069L677.322 140.251a56.731 56.731 0 0 1 9.287-76.607 56.726 56.726 0 0 1 77.087 3.532Z"/>
  <path shape-rendering='crispEdges' fill="url(#e)" d="M578.292 181.09a78.58 78.58 0 0 0 21.244-57.612 78.573 78.573 0 0 0-26.679-55.304 78.578 78.578 0 0 0-58.314-19.233 78.585 78.585 0 0 0-54.346 28.582l-316.259 357.64a78.589 78.589 0 0 0-13.53 87.978 78.568 78.568 0 0 0 46.165 40.486 78.586 78.586 0 0 0 85.459-24.897l316.26-357.64Z"/>
  <path shape-rendering='crispEdges' fill="url(#f)" d="M123.439 512.876a78.516 78.516 0 0 0 97.366 53.372 78.505 78.505 0 0 0 56.053-66.849 78.5 78.5 0 0 0-2.681-30.516l-90.038-358.717A93.01 93.01 0 1 0 6.088 161.873l117.351 351.003Z"/>
  <path shape-rendering='crispEdges' fill="url(#g)" d="M191.62 256.602c44.958 0 81.403-36.446 81.403-81.403 0-44.958-36.445-81.403-81.403-81.403-44.957 0-81.403 36.445-81.403 81.403 0 44.957 36.446 81.403 81.403 81.403Z"/>
  <defs>
    <linearGradient id="a" x1="725.801" x2="445.387" y1="311.359" y2="311.359" gradientUnits="userSpaceOnUse">
      <stop offset=".14" stop-color="#BF9B79"/>
      <stop offset=".33" stop-color="#B29381"/>
      <stop offset="1" stop-color="#C8996E"/>
    </linearGradient>
    <linearGradient id="b" x1="788.447" x2="567.068" y1="493.378" y2="109.911" gradientUnits="userSpaceOnUse">
      <stop stop-color="#BE9A79"/>
      <stop offset=".73" stop-color="#DB5B4F"/>
    </linearGradient>
    <linearGradient id="c" x1="1022.1" x2="877.257" y1="424.66" y2="173.764" gradientUnits="userSpaceOnUse">
      <stop offset=".1" stop-color="#8F4B98"/>
      <stop offset="1" stop-color="#E43A80"/>
    </linearGradient>
    <linearGradient id="d" x1="626.948" x2="1122.46" y1="308.925" y2="308.925" gradientUnits="userSpaceOnUse">
      <stop stop-color="#4CA5DB"/>
      <stop offset="1" stop-color="#6256A5"/>
    </linearGradient>
    <linearGradient id="e" x1="7.908" x2="515.824" y1="702.51" y2="135.379" gradientUnits="userSpaceOnUse">
      <stop offset=".14" stop-color="#4788C8"/>
      <stop offset=".55" stop-color="#9293A0"/>
      <stop offset=".95" stop-color="#B6997F"/>
    </linearGradient>
    <linearGradient id="f" x1="78.292" x2="342.487" y1="81.392" y2="930.909" gradientUnits="userSpaceOnUse">
      <stop stop-color="#4788C8"/>
      <stop offset=".57" stop-color="#9293A0"/>
      <stop offset=".98" stop-color="#B6997F"/>
    </linearGradient>
    <linearGradient id="g" x1="269.385" x2="18.668" y1="134.818" y2="265.057" gradientUnits="userSpaceOnUse">
      <stop stop-color="#FBA92F"/>
      <stop offset="1" stop-color="#EB7338"/>
    </linearGradient>
  </defs>
</svg>
